X: 1
T: the Grand Old Duke of York
R: march
Z: 2010 John Chambers <jc:trillian.mit.edu>
M: 2/4
L: 1/16
K: G
B3A | "G"G2D2 B,2D2 | G4 z2G2 | "D7"A2A2 A2A2 | A4 z2 ||
w: Oh, the Grand Old Duke of York, he had ten thou-sand men.
A2 | "G"B2B2 B2BB | "C"c2cc c2cc | "G"B2G2 "D7"A2F2 | "G"G4 z2 |]
w: He marched them up to the top of the hill, and he marched them down a-gain.
D2 | "G"G2GG G2GG | G4 z2G2 | "D7"A2AA A2AA | A4 z2 |
w: And when the were up they were up, and when they were down they were down,
A2 | "G"B2BB B2B2 | "C"c2c2 c2cc | "G"B2G2 "D7"A2F2 | "G"G4 |]
w: And when they were on-ly half-way up, they were nei-ther up nor down.
